ui/public/imgs/providers/sslcom.svg

<svg xmlns="http://www.w3.org/2000/svg" width="200" height="200" viewBox="0 0 72 72" fill="none"><circle cx="36" cy="36" r="35" stroke="#A0CC40" stroke-width="2"></circle><path d="M13.4924 16.2017H20.2845L18.8546 22.9937H12.0625L13.4924 16.2017Z" fill="#A0CC40"></path><path d="M19.8362 25.943H26.6282L25.1983 32.7351H18.4062L19.8362 25.943Z" fill="#A0CC40"></path><path fill-rule="evenodd" clip-rule="evenodd" d="M21.9812 22.9613C21.8448 22.8247 22.8688 17.4717 23.1888 16.6485C23.3515 16.2297 24.34 16.2017 38.924 16.2017C52.2002 16.2017 54.5064 16.2555 54.6262 16.5678C54.7033 16.769 54.5273 18.1065 54.2349 19.5397C53.8001 21.6709 53.5664 22.5316 53.8871 22.8758C54.1437 23.1511 54.755 23.0959 55.902 23.0959C58.0542 23.0959 58.0979 23.1081 57.9587 23.6704C57.8806 23.9865 56.3682 31.0817 54.5978 39.4377C52.8278 47.7937 51.32 54.8314 51.2472 55.0773C51.1231 55.4958 50.2388 55.5242 37.3542 55.5242C29.7857 55.5242 23.5459 55.4381 23.4879 55.3327C23.4302 55.2275 24.902 48.0172 26.7589 39.31C28.6161 30.6029 30.0866 23.3926 30.027 23.2874C29.9675 23.1819 28.1632 23.0959 26.0174 23.0959C23.8716 23.0959 22.0553 23.0354 21.9812 22.9613ZM35.6711 44.6994C36.8749 45.2482 38.2735 45.5226 39.8669 45.5226C40.9646 45.5226 42.0445 45.3898 43.1067 45.1243C44.1867 44.8587 45.2224 44.3895 46.2138 43.7168L43.7175 40.0786C43.2572 40.415 42.7527 40.6717 42.2038 40.8487C41.655 41.0081 41.1062 41.0877 40.5574 41.0877C39.6191 41.0877 38.902 40.9019 38.4063 40.5301C38.0832 40.2668 37.8693 39.8861 37.7646 39.3882H47.9399C48.0285 38.9987 48.0993 38.5915 48.1524 38.1666C48.2232 37.7417 48.2586 37.3079 48.2586 36.8653C48.2586 35.6084 47.9665 34.5019 47.3823 33.5458C46.798 32.5898 45.9571 31.8374 44.8594 31.2886C43.7618 30.7398 42.434 30.4653 40.876 30.4653C39.0702 30.4653 37.4857 30.8283 36.1225 31.5541C34.777 32.28 33.7325 33.2714 32.9889 34.5284C32.2453 35.7854 31.8736 37.2106 31.8736 38.8039C31.8736 40.1671 32.2099 41.3533 32.8827 42.3624C33.5554 43.3716 34.4849 44.1505 35.6711 44.6994ZM38.0084 36.4936H42.7816C42.7785 36.2493 42.7364 36.028 42.6553 35.8297C42.5137 35.4225 42.2658 35.1126 41.9117 34.9002C41.5576 34.67 41.1239 34.555 40.6105 34.555C39.8846 34.555 39.3092 34.7497 38.8843 35.1392C38.4965 35.4948 38.2045 35.9462 38.0084 36.4936Z" fill="#A0CC40"></path></svg>

<svg xmlns="http://www.w3.org/2000/svg" width="200" height="200" fill="none" viewBox="0 0 72 72"><circle cx="36" cy="36" r="35" stroke="#a0cc40" stroke-width="2"/><path fill="#a0cc40" d="M13.492 16.202h6.793l-1.43 6.792h-6.792zm6.344 9.741h6.792l-1.43 6.792h-6.792z"/><path fill="#a0cc40" fill-rule="evenodd" d="M21.981 22.961c-.136-.136.888-5.49 1.208-6.312.163-.42 1.151-.447 15.735-.447 13.276 0 15.582.053 15.702.366.077.201-.099 1.538-.391 2.972-.435 2.13-.669 2.992-.348 3.336.257.275.868.22 2.015.22 2.152 0 2.196.012 2.057.574-.078.316-1.59 7.412-3.361 15.768-1.77 8.356-3.278 15.393-3.35 15.64-.125.418-1.01.446-13.894.446-7.568 0-13.808-.086-13.866-.191s1.414-7.316 3.27-16.023c1.858-8.707 3.329-15.917 3.269-16.023s-1.864-.191-4.01-.191-3.962-.06-4.036-.135M35.671 44.7q1.806.825 4.196.824a13.3 13.3 0 0 0 3.24-.399 9.6 9.6 0 0 0 3.107-1.407l-2.496-3.638a5.3 5.3 0 0 1-1.514.77 6 6 0 0 1-1.647.239q-1.407 0-2.15-.558-.486-.395-.642-1.142H47.94q.134-.584.212-1.221.107-.638.107-1.302 0-1.885-.877-3.32-.876-1.433-2.523-2.256-1.646-.824-3.983-.824-2.709 0-4.753 1.09-2.019 1.087-3.134 2.973-1.116 1.886-1.115 4.276 0 2.045 1.009 3.558 1.008 1.514 2.788 2.337m2.337-8.205h4.774a1.8 1.8 0 0 0-.127-.664 1.7 1.7 0 0 0-.743-.93q-.531-.345-1.301-.345-1.09 0-1.727.584-.582.534-.876 1.355" clip-rule="evenodd"/></svg>
